icon/gr/circle-play.svg

<svg xmlns="http://www.w3.org/2000/svg" viewBox="0 0 24 24" height="1em" width="1em">
  <path fill="none" stroke="#000" stroke-width="2" d="M12,22 C17.5228475,22 22,17.5228475 22,12 C22,6.4771525 17.5228475,2 12,2 C6.4771525,2 2,6.4771525 2,12 C2,17.5228475 6.4771525,22 12,22 Z M9.5,15.5 L15.5,12 L9.5,8.5 L9.5,15.5 Z M10.5,13.5 L12.5,12 L10.5,10.5 L10.5,13.5 Z"/>
</svg>

<svg xmlns="http://www.w3.org/2000/svg" width="24" height="24"><path fill="none" stroke="#000" stroke-width="2" d="M12 22c5.523 0 10-4.477 10-10S17.523 2 12 2 2 6.477 2 12s4.477 10 10 10Zm-2.5-6.5 6-3.5-6-3.5v7Zm1-2 2-1.5-2-1.5v3Z"/></svg>
